static/logos/coda-wordmark-color.svg

<svg width="50" height="18" viewBox="0 0 50 18" fill="none" xmlns="http://www.w3.org/2000/svg">
<g clip-path="url(#clip0_1_3210)">
<path d="M0 10.4878C0 14.6135 2.85583 17.178 6.46933 17.178C7.73926 17.178 9.0092 16.8712 9.93558 16.178V12.954C9.09614 13.7035 8.0088 14.1155 6.88344 14.1105C5.00614 14.1105 3.5092 12.7669 3.5092 10.497C3.5092 8.22705 5 6.90803 6.88344 6.90803C8.01463 6.8864 9.11156 7.29665 9.95092 8.05527V4.82521C9.03067 4.11662 7.7546 3.84668 6.48466 3.84668C2.85583 3.84668 0 6.4111 0 10.4878Z" fill="#101010"/>
<path d="M17.2984 3.84668C13.6174 3.84668 11.0469 6.58288 11.0469 10.4878C11.0469 14.3927 13.6113 17.178 17.2984 17.178C20.9855 17.178 23.5714 14.4172 23.5714 10.4878C23.5714 6.55834 21.0101 3.84668 17.2984 3.84668ZM17.2984 14.1749C15.5407 14.1749 14.5622 12.6412 14.5622 10.4939C14.5622 8.34668 15.5407 6.83134 17.2984 6.83134C19.0561 6.83134 20.0315 8.36508 20.0315 10.4939C20.0315 12.6228 19.0806 14.1749 17.2984 14.1749Z" fill="#101010"/>
<path d="M33.6431 5.19018C33.2244 4.76015 32.7229 4.41939 32.1686 4.18847C31.6146 3.95755 31.0195 3.84126 30.4192 3.84663C26.7075 3.84663 24.6094 6.84969 24.6094 10.4877C24.6094 14.1687 26.7075 17.1779 30.4192 17.1779C31.0186 17.1777 31.6121 17.0589 32.1655 16.8283C32.7189 16.5978 33.221 16.2599 33.6431 15.8344V16.8865H37.183V0H33.6431V5.19018ZM33.6431 12.6135C33.4137 13.056 33.0667 13.4267 32.64 13.6848C32.2137 13.9429 31.7244 14.0785 31.2259 14.0767C29.2965 14.0767 28.1585 12.5429 28.1585 10.4877C28.1585 8.43251 29.3057 6.92331 31.2259 6.92331C31.7272 6.92442 32.2183 7.06429 32.645 7.32742C33.0716 7.59055 33.417 7.96669 33.6431 8.41411V12.6135Z" fill="#101010"/>
<path d="M44.2663 3.84668C42.5578 3.84668 40.9228 4.31294 39.9933 4.89883V7.96631C41.0298 7.28337 42.243 6.91772 43.4841 6.91416C45.2909 6.91416 46.343 7.69637 46.343 8.94177V9.65036C45.8277 9.28226 44.5823 8.89269 43.4841 8.89269C40.6774 8.89269 38.5547 10.5522 38.5547 12.9939C38.5547 15.632 40.6774 17.1197 43.2663 17.1197C44.6559 17.1197 45.9259 16.632 46.3338 16.2178V16.9019H49.751V8.73011C49.7602 5.62889 47.7571 3.84668 44.2663 3.84668ZM46.343 13.4172C46.0363 14.1013 45.0976 14.5185 44.0946 14.5185C42.9719 14.5185 41.8246 14.0522 41.8246 12.954C41.8246 11.8559 42.9719 11.3927 44.0946 11.3927C45.0976 11.3927 46.024 11.8068 46.343 12.4909V13.4172Z" fill="#101010"/>
</g>
<defs>
<clipPath id="clip0_1_3210">
<rect width="50" height="17.1779" fill="white"/>
</clipPath>
</defs>
</svg>

<svg xmlns="http://www.w3.org/2000/svg" width="177.778" height="64" fill="none" viewBox="0 0 50 18"><g fill="#101010" clip-path="url(#a)"><path d="M0 10.488c0 4.126 2.856 6.69 6.47 6.69 1.27 0 2.54-.307 3.466-1v-3.224a4.552 4.552 0 0 1-3.053 1.156c-1.877 0-3.374-1.343-3.374-3.613S5 6.908 6.883 6.908a4.448 4.448 0 0 1 3.068 1.147v-3.23c-.92-.708-2.196-.978-3.466-.978C2.855 3.847 0 6.41 0 10.487ZM17.298 3.847c-3.68 0-6.251 2.736-6.251 6.64 0 3.906 2.564 6.691 6.251 6.691 3.688 0 6.273-2.76 6.273-6.69 0-3.93-2.56-6.641-6.273-6.641Zm0 10.328c-1.757 0-2.736-1.534-2.736-3.681 0-2.147.979-3.663 2.736-3.663 1.758 0 2.734 1.534 2.734 3.663 0 2.129-.951 3.68-2.734 3.68ZM33.643 5.19a4.442 4.442 0 0 0-3.224-1.343c-3.712 0-5.81 3.003-5.81 6.64 0 3.682 2.098 6.69 5.81 6.69a4.544 4.544 0 0 0 3.224-1.343v1.053h3.54V0h-3.54v5.19Zm0 7.423a2.71 2.71 0 0 1-2.417 1.464c-1.93 0-3.067-1.534-3.067-3.59 0-2.054 1.147-3.564 3.067-3.564a2.715 2.715 0 0 1 2.417 1.491v4.2ZM44.266 3.847c-1.708 0-3.343.466-4.273 1.052v3.067a6.378 6.378 0 0 1 3.491-1.052c1.807 0 2.859.782 2.859 2.028v.708c-.515-.368-1.76-.757-2.859-.757-2.807 0-4.93 1.66-4.93 4.1 0 2.639 2.123 4.127 4.712 4.127 1.39 0 2.66-.488 3.068-.902v.684h3.417V8.73c.01-3.101-1.994-4.883-5.485-4.883Zm2.077 9.57c-.307.684-1.245 1.101-2.248 1.101-1.123 0-2.27-.466-2.27-1.564s1.147-1.561 2.27-1.561c1.003 0 1.929.414 2.248 1.098v.926Z"/></g><defs><clipPath id="a"><path fill="#fff" d="M0 0h50v17.178H0z"/></clipPath></defs></svg>
